!!!COM: Bach, Johann Sebastian
!!!CDT: 1685/3//-1750/7/28/
!!!OTL@@DE: Was frag' ich nach der Welt
!!!AGN: 4-Part Chorale
!!!SCT: BH 255
!!!SCT: BWV 64
**harm	**root	**kern	**kern	**kern	**kern
!	!	!bass	!tenor	!alto	!soprno
*	*Iorgan	*Iorgan	*Iorgan	*Iorgan	*Iorgan
*M4/4	*M4/4	*M4/4	*M4/4	*M4/4	*M4/4
*met(c)	*met(c)	*met(c)	*met(c)	*met(c)	*met(c)
*MM60	*MM60	*MM60	*MM60	*MM60	*MM60
*k[f#c#g#d#a#e#]	*k[f#c#g#d#a#e#]	*k[f#c#g#d#a#e#]	*k[f#c#g#d#a#e#]	*k[f#c#g#d#a#e#]	*k[f#c#g#d#a#e#]
*F#:	*F#:	*F#:	*F#:	*F#:	*F#:
Vb	4AA	4E#	4c#	4g#	4cc#
=1	=1	=1	=1	=1	=1
I	4DD	8F#	4c#	4f#	4a#
.	.	8E#	.	.	.
I	4DD	8F#	4c#	8a#	4f#
.	.	8G#	.	8g#	.
Ib	4DD	8A#	4c#	4f#	4cc#
.	.	8G#	.	.	.
Ib	4DD	8A#	4f#	8cc#	4cc#
.	.	8F#	.	8a#	.
=2	=2	=2	=2	=2	=2
IV;	2.GG;	2.B;	2.f#;	2.b;	2.dd#;
IV	4GG	4BB	4B	4f#	4dd#
=3	=3	=3	=3	=3	=3
V7	4AA	8C#	4.B	8e#	4g#
.	.	8BB	.	8f#	.
V7	4AA	8C#	.	8e#	4g#
.	.	8D#	8A#	8d#	.
Vb	4AA	8E#	4G#	4c#	4cc#
.	.	8D#	.	.	.
V7b	4AA	8E#	4c#	4g#	4b
.	.	8C#	.	.	.
=4	=4	=4	=4	=4	=4
I	4DD	4F#	4c#	4f#	4a#
I;	4DD;	4F#;	4A#;	4c#;	4f#;
r	4r	4r	4r	4r	4r
Ib	4DD	4A#	4c#	4f#	4cc#
=5	=5	=5	=5	=5	=5
IV	4GG	4B	8B	4f#	4dd#
.	.	.	8c#	.	.
ii	4EE	4G#	4d#	4b	4dd#
Ic	4DD	4c#	8e#	4a#	4cc#
.	.	.	8f#	.	.
V7	4AA	4C#	8f#	4g#	4b
.	.	.	8e#	.	.
=6	=6	=6	=6	=6	=6
I;	2.DD;	2.F#;	2.f#;	2.c#;	2.a#;
V	4AA	4C#	4e#	4e#	4g#
=7	=7	=7	=7	=7	=7
I	4DD	8F#	4c#	4f#	4a#
.	.	8E#	.	.	.
V7d/V	4EE	8F#	4d#	4g#	4b#
.	.	8D#	.	.	.
Vb	4.AA	8E#	4.c#	4.g#	4.cc#
.	.	8D#	.	.	.
.	.	8E#	.	.	.
vib	8BB	8F#	8f#	8a#	8dd#
=8	=8	=8	=8	=8	=8
V/V	2EE	4G#	2d#	2g#	2b#
.	.	4GG#	.	.	.
V;	4AA;	4C#;	4e#;	4g#;	4cc#;
V	4AA	4C#	4e#	4g#	4cc#
!!linebreak: 2
=9	=9	=9	=9	=9	=9
I	4DD	8F#	4f#	8a#	4cc#
.	.	8E#	.	8g#	.
I	4DD	8F#	4f#	8a#	4cc#
.	.	8G#	.	8b	.
Ib	4DD	8A#	4f#	8cc#	4ff#
.	.	8G#	.	8b	.
I7b	4DD	8A#	4f#	8cc#	4ee
.	.	8F#	.	8a#	.
=10	=10	=10	=10	=10	=10
IV;	2.GG;	2.B;	2.f#;	2.b;	2.dd#;
Vb/II	4BB	4F##	8d#	4a#	4dd#
.	.	.	8c#	.	.
=11	=11	=11	=11	=11	=11
II	4EE	8G#	8B#	4g#	4dd#
.	.	8F##	8A#	.	.
II	4EE	8G#	8B#	4g#	4dd#
.	.	8A#	8c#	.	.
IIb	4EE	8B#	8d#	4g#	4gg#
.	.	8A#	8c#	.	.
II7b	4EE	8B#	8d#	4g#	4ff#
.	.	8G#	8B#	.	.
=12	=12	=12	=12	=12	=12
V;	2.AA;	2.c#;	2.c#;	2.g#;	2.ee#
Ib	4DD	4A#	4f#	4f#	4cc#
=13	=13	=13	=13	=13	=13
IV	4GG	8B	4f#	4b	4dd#
.	.	8c#	.	.	.
Ib	4DD	8B	4f#	4cc#	4cc#
.	.	8A#	.	.	.
IV	4GG	8B	4f#	4b	4dd#
.	.	8A#	.	.	.
viioD7c/vi	4AA#	8B	4g#	8dd#	4ee#
.	.	8G#	.	8cc##	.
=14	=14	=14	=14	=14	=14
vi;	2.BB;	2.d#;	2.a#;	2.dd#;	2.ff#;
Vb	4AA	4E#	4g#	8cc#	4cc#
.	.	.	.	8b	.
=15	=15	=15	=15	=15	=15
I	4DD	8F#	4f#	4a#	4cc#
.	.	8G#	.	.	.
iii7	4FF#	8A#	4c#	8g#	8b
.	.	8B	.	8f#	8a#
V	4AA	4c#	8c#	4f#	4g#
.	.	.	8d#	.	.
V	4AA	4C#	8c#	4e#	4g#
.	.	.	8B	.	.
=16	=16	=16	=16	=16	=16
I;	2.DD;	2.F#;	2.A#;	2.c#;	2.f#;
==	==	==	==	==	==
*-	*-	*-	*-	*-	*-
!!chor2scor: -l 2 -s 0.6 -o %b.pmx
!!!YEC: Copyright 1994, David Huron
!!!YEC: Changes/Additions 2001 by Craig Stuart Sapp
!!!YEN: United States of America
!!!SMA: 371 Bach Chorales, edited by Ludwig Erk, C.F. Peters
!!!PDT: 1850, 1865
!!!ONB: Harmony and Root analysis done manually
